modules/hawcons-stroke/icons/icon-37-raindrop.svg

<?xml version="1.0" encoding="UTF-8" standalone="no"?>
<svg width="32px" height="32px" viewBox="0 0 32 32" version="1.1" xmlns="http://www.w3.org/2000/svg" xmlns:xlink="http://www.w3.org/1999/xlink" xmlns:sketch="http://www.bohemiancoding.com/sketch/ns">
    <!-- Generator: Sketch 3.0.3 (7891) - http://www.bohemiancoding.com/sketch -->
    <title>icon 37 raindrop</title>
    <desc>Created with Sketch.</desc>
    <defs></defs>
    <g id="Page-1" stroke="none" stroke-width="1" fill="none" fill-rule="evenodd" sketch:type="MSPage">
        <g id="icon-37-raindrop" sketch:type="MSArtboardGroup" fill="#929292">
            <path d="M13,18.2105263 C13.0000002,15.6842105 17,10 17,10 C17,10 21,15.6842105 21,18.2105263 C21,20.3033949 19.2091391,22 17,22 C14.7908609,22 13,20.3033949 13,18.2105263 L13,18.2105263 Z M14,18.2105263 C14.0000001,16.5 17,11.7999878 17,11.7999878 C17,11.7999878 20,16.5 20,18.2105263 C20,20 18.2091391,21 17,21 C15.7908609,21 14,20 14,18.2105263 L14,18.2105263 Z" id="raindrop" sketch:type="MSShapeGroup"></path>
        </g>
    </g>
</svg>

<svg width="32" height="32" viewBox="0 0 32 32" xmlns="http://www.w3.org/2000/svg"><path d="M13 18.21c0-2.526 4-8.21 4-8.21s4 5.684 4 8.21c0 2.093-1.79 3.79-4 3.79s-4-1.697-4-3.79zm1 0c0-1.71 3-6.41 3-6.41s3 4.7 3 6.41C20 20 18.21 21 17 21s-3-1-3-2.79z" fill="#929292" fill-rule="evenodd"/></svg>
